packages/icons/src/wifi-slash.svg

<svg width="24" height="24" viewBox="0 0 24 24" fill="none" xmlns="http://www.w3.org/2000/svg">
<path fill-rule="evenodd" clip-rule="evenodd" d="M20.25 10.917C19.1832 9.84926 17.9209 8.99676 16.532 8.406C15.122 7.802 13.612 7.5 12 7.5C11.442 7.49985 10.8848 7.54163 10.333 7.625L8.208 5.5C8.82049 5.33306 9.44358 5.20777 10.073 5.125C10.7119 5.04119 11.3556 4.99943 12 5C13.972 5 15.813 5.368 17.52 6.104C19.1925 6.8157 20.7133 7.84117 22 9.125L20.25 10.917ZM16.917 14.208L16.312 13.604L15.708 13L12.708 10C13.8014 10.1024 14.8691 10.3912 15.865 10.854C16.8287 11.302 17.7064 11.9156 18.458 12.667L16.917 14.208ZM18.458 20.5L14.5638 16.5849L13.1378 15.1512L10.625 12.625C9.98953 12.7715 9.37669 13.0029 8.803 13.313C8.24395 13.6155 7.7344 14.0016 7.292 14.458L5.542 12.667C5.97869 12.2286 6.46035 11.8375 6.979 11.5C7.50174 11.162 8.05241 10.8692 8.625 10.625L6.75 8.75C6.18 9.042 5.65 9.364 5.157 9.718C4.663 10.073 4.194 10.472 3.75 10.917L2 9.125C2.444 8.681 2.906 8.281 3.386 7.927C3.865 7.573 4.375 7.237 4.916 6.917L3.166 5.167L4.334 4L19.668 19.333L18.458 20.5ZM12 19.167L9.062 16.208C9.438 15.833 9.875 15.538 10.375 15.323C10.8888 15.1051 11.4419 14.9951 12 15C12.3854 14.9964 12.7684 15.0476 13.1378 15.1512C13.3033 15.1977 13.466 15.2547 13.625 15.322C14.125 15.538 14.563 15.833 14.938 16.208L14.5638 16.5849L12 19.167Z" fill="black"/>
<path d="M13.1378 15.1512L14.5638 16.5849L14.938 16.208C14.563 15.833 14.125 15.538 13.625 15.322C13.466 15.2547 13.3033 15.1977 13.1378 15.1512Z" fill="black"/>
</svg>

<svg xmlns="http://www.w3.org/2000/svg" width="24" height="24" fill="none" viewBox="0 0 24 24">
  <path fill="#000" fill-rule="evenodd" d="M20.25 10.917a11.766 11.766 0 0 0-3.718-2.511C15.122 7.802 13.612 7.5 12 7.5c-.558 0-1.115.042-1.667.125L8.208 5.5a14.066 14.066 0 0 1 1.865-.375A14.715 14.715 0 0 1 12 5c1.972 0 3.813.368 5.52 1.104A14.233 14.233 0 0 1 22 9.125l-1.75 1.792Zm-3.333 3.291-.605-.604-.604-.604-3-3a9.62 9.62 0 0 1 3.157.854 9.083 9.083 0 0 1 2.593 1.813l-1.541 1.541Zm1.541 6.292-3.894-3.915-1.426-1.434-2.513-2.526a7.263 7.263 0 0 0-1.822.688 6.24 6.24 0 0 0-1.511 1.145l-1.75-1.791c.437-.438.918-.83 1.437-1.167a10.99 10.99 0 0 1 1.646-.875L6.75 8.75c-.57.292-1.1.614-1.593.968-.494.355-.963.754-1.407 1.199L2 9.125c.444-.444.906-.844 1.386-1.198.479-.354.989-.69 1.53-1.01l-1.75-1.75L4.334 4l15.334 15.333-1.21 1.167ZM12 19.167l-2.938-2.959c.376-.375.813-.67 1.313-.885A4.07 4.07 0 0 1 12 15a4.073 4.073 0 0 1 1.625.322c.5.216.938.511 1.313.886l-.374.377L12 19.167Z" clip-rule="evenodd"/>
  <path fill="#000" d="m13.138 15.151 1.426 1.434.374-.377a4.184 4.184 0 0 0-1.8-1.057Z"/>
</svg>
